X: 062120
T: Factory Turn (The)
C: Joe Liddy
Z: BB
S: "The Leitrim Fiddler" (Dublin 1981)
L: 1/8
M: 4/4
R: reel
Q: 1/4 = 180
K: G
GF |: DGGA BAGF | DGGA Bcde | f2 af gfdc | AGFE FGAF |
DGGA BAGF | DGGA Bcde | fgaf gfdc | (3ABc GF DG G2 :|
dggf g2 ag | (3agf dc defg | ag (3agf gfdc | AGFE FGAc |
dggf g2 ag | fdcA Bcde | fgaf gfdc | (3ABc GF DG G2 :|
